!! Georg Philipp Telemann (1681-1767)
!! Fantasy No. 6 from "Clavier Fantasies" from "Kleine Fantasien"
!! published by Edition Schott, edited by Erich Doflein, pp.12-13
!! Vivace
**kern	**kern
*M3/4	*M3/4
*k[b-e-]	*k[b-e-]
*g:	*g:
=1	=1
4GG 4G	8r
.	8dd
8r	8dd
8g 8b-	8dd
8f 8a	16dd
.	16cc
8e- 8g	16dd
.	16ee-
=2	=2
4d 4f	8ff
.	8b-
8r	8b-
8e- 8g	8b-
8d 8f	16b-
.	16a
8c 8e-	16b-
.	16cc
=3	=3
4B- 4d	8dd
.	8g
8r	8g
8c 8e-	8g
8B- 8d	16g
.	16f#
8A 8c	16g
.	16a
=4	=4
4G 4B-	8b-
.	8g
4BB-	8dd
.	8d
4AA 4F#	8cc
.	16b-
.	16a
=5	=5
4GG 4G	8b-
!! Apostrophe.
.	8g
4BB-	8dd
.	8d
4AA 4F#	8cc
.	16b-
.	16a
=6	=6
4GG 4G	8b-
!! Apostrophe.
.	8dd
8r	4gg
8d	.
4g	8r
.	8dd
=7	=7
8r	8gg
8F#	8dd
8G	8b-
8C	16a
.	16g
8D	8d
8DD	8f#
=8	=8
8GG	4g
!! Apostrophe.
8D	.
8G	8r
8Fn	8bn
8E-	8cc
8D	8dd
=9	=9
4C	16ee-
.	16gg
.	16ff
.	16gg
4r	16ee-
.	16gg
.	16dd
.	16gg
4r	16cc
.	16gg
.	16b-
.	16gg
=10	=10
8FF	4a
8C	.
8F	8r
8E-	16ee-
.	32ff
.	32gg
8D	8ff
8C	8ee-
=11	=11
4BB-	16dd
.	16ff
.	16ee-
.	16ff
4r	16dd
.	16ff
.	16cc
.	16ff
4r	16b-
.	16ff
.	16a
.	16ff
=12	=12
8EE-	4g
8BB-	.
8E-	8r
8D	8b-
8C	8ee-
8BB-	8dd
=13	=13
4E-	16cc
.	16ee-
.	16dd
.	16ee-
4r	16cc
.	16ee-
.	16b-
.	16ee-
4C	16a
.	16ee-
.	16g
.	16ee-
=14	=14
4D	16f
.	16dd
.	16cc
.	16dd
4r	16b-
.	16dd
.	16a
.	16dd
4BB-	16g
.	16dd
.	16f
.	16dd
=15	=15
4C	16e-
.	16cc
.	16b-
.	16cc
4r	16a
.	16cc
.	16g
.	16cc
4AA	16f
.	16cc
.	16e-
.	16cc
=16	=16
4BB-	8d
!! Apostrophe.
.	8f
8r	8b-
8BB-	8b-
8D	8.b-T
8BB-	.
.	32a
.	32b-
=17	=17
4F	8cc
.	8f
8r	8cc
8F	8cc
8A	8.ccT
8F	.
.	32b-
.	32cc
=18	=18
4B-	8dd
!! Apostrophe.
.	8ff
8r	4bb-
8f	.
4b-	8r
.	8ff
=19	=19
8r	8bb-
8A	8ff
8B-	8dd
8E-	16cc
.	16b-
8F	8f
8FF	8a
=20	=20
16BB-	4b-
16D	.
16C	.
16BB-	.
16F	4dd
16D	.
16C	.
16D	.
16BBn	4g
16F	.
16E-	.
16D	.
=21	=21
16C	4r
16E-	.
16D	.
16C	.
16G	4een
16En	.
16D	.
16E	.
16C#	4a
16G	.
16F	.
16E	.
=22	=22
4D	16ff
.	16aa
.	16gg
.	16ff
4d	16bb-
.	16aa
.	16gg
.	16ff
4D	16bb-
.	16aa
.	16gg
.	16ff
=23	=23
4r	16een
.	16gg
.	16ff
.	16ee
4c	16aa
.	16gg
.	16ff
.	16ee
4C	16aa
.	16gg
.	16ff
.	16ee
=24	=24
4r	16dd
.	16ff
.	16een
.	16dd
4B-	16gg
.	16ff
.	16ee
.	16dd
4BB-	16gg
.	16ff
.	16ee
.	16dd
=25	=25
4AA	16een
.	16cc#
.	16dd
.	16ee
8r	4a
8G 8B-	.
8F 8A	4r
8En 8G	.
=26	=26
4D 4F	8r
.	8aa
8r	8aa
8dd 8ff	8aa
8cc 8een	16aa
.	16gg
8b- 8dd	16aa
.	16bb-
=27	=27
4a 4cc	8ccc
.	8ff
8r	8ff
8b- 8dd	8ff
8a 8cc	16ff
.	16een
8g 8b-	16ff
.	16gg
=28	=28
4f 4a	8aa
.	8dd
8r	8dd
8g 8b-	8dd
8f 8a	16dd
.	16cc#
8e 8g	16dd
.	16een
=29	=29
4d 4f	8ff
.	8dd
4c#	8een
.	8a
4A	8gg
.	16ff
.	16ee
=30	=30
4d	8ff
!! Apostrophe.
.	8dd
4c#	8een
.	8a
4A	8gg
.	16ff
.	16ee
=31	=31
4D	8ff
!! Apostrophe.
.	8a
8r	4dd
8A	.
4d	8r
.	8a
=32	=32
8r	8dd
8c#	8aa
8d	8ff
8G	16een
.	16dd
8A	8a
8AA	8cc#
=33	=33
4D	8dd
!! Apostrophe.
.	8a
8r	8b-
8A	8f#
8B-	8g
8F#	8a
=34	=34
4G	8b-
!! Apostrophe.
.	8dd
8r	8ee-
8d	8bn
8e-	8cc
8Bn	8dd
=35	=35
4c	8ee-
.	16ff
.	16gg
4E-	8cc
.	16dd
.	16ee-
4C	8a
.	16b-
.	16cc
=36	=36
8D	4f#
!! Apostrophe.
8A	.
8d	8r
8c	8a
8Bn	8dd
8A-	8cc
=37	=37
8G	4bn
8d	.
8g	8r
8f	8dd
8en	8gg
8d	8ff
=38	=38
8c	4een
!! Apostrophe.
8g	.
8cc	8r
8b-	8gg
8a	8ccc
8g	8bb-
=39	=39
4f	16aa
.	16ccc
.	16bb-
.	16ccc
4r	16aa
.	16ccc
.	16gg
.	16ccc
4A	16ff
.	16ccc
.	16ee-
.	16ccc
=40	=40
4B-	16dd
.	16bb-
.	16aa
.	16bb-
4r	16gg
.	16bb-
.	16ff
.	16bb-
4G	16ee-
.	16bb-
.	16dd
.	16bb-
=41	=41
4A	16cc
.	16aa
.	16gg
.	16aa
4r	16ff#
.	16aa
.	16ee-
.	16aa
4F#	16dd
.	16aa
.	16cc
.	16aa
=42	=42
4G	8b-
.	8dd
8r	8gg
8G	8gg
8B-	8.ggT
8G	.
.	32ff#
.	32gg
=43	=43
4D	8aa
.	8dd
8r	8aa
8D	8aa
8F#	8.aat
8D	.
.	32gg
.	32aa
=44	=44
8GG	8bb-
8AA	16aa
.	16bb-
8BB-	8gg
8C	8aa
8D	8dd
8DD	8ff#
=45	=45
16GG	4gg
16G	.
16Fn	.
16G	.
16E-	8r
16G	.
16D	8ffn
16G	.
16C	8ee-
16G	.
16BB-	8dd
16G	.
=46	=46
16AA	8cc
16F	.
16E-	8a
16F	.
16D	8ff
16F	.
16C	8ee-
16F	.
16BB-	8dd
16F	.
16AA	8cc
16F	.
=47	=47
16GG	8b-
16E-	.
16D	8g
16E-	.
16C	4g 4cc 4ee-
16E-	.
16BB-	.
16E-	.
16AA	4a 4cc 4ee-
16E-	.
16G	.
16E-	.
=48	=48
2FF#	2a 2cc 2ee-
4r	4r
=49	=49
4DD	8r
.	8a
8r	8b-
8A	8f#
8B-	8g
8F#	8a
=50	=50
4G	8b-
!! Apostrophe.
.	8g
4BB-	8dd
.	8d
4AA 4F#	8cc
.	16b-
.	16a
=51	=51
4GG 4G	8b-
!! Apostrophe.
.	8g
4BB-	8dd
.	8d
4AA 4F#	8cc
.	16b-
.	16a
=52	=52
4GG 4G	8b-
!! Apostrophe.
.	8dd
8r	4gg
8d	.
4g	8r
.	8dd
=53	=53
8r	8gg
8F#	8dd
8G	8b-
8C	16a
.	16g
8D	8d
8DD	8f#
=54	=54
2.GG;	2.g;
==	==
*-	*-
